svgs/dateikarten.svg

<svg xmlns="http://www.w3.org/2000/svg" viewBox="0 0 192 192"><path d="M55.132 175.431c-5.333-1.372-8.992-5.129-8.992-9.23v-1.676l-2.497-.209c-3.119-.262-7.121-1.711-8.921-3.231-1.806-1.525-3.191-3.903-3.53-6.06l-.277-1.763-2.399-.213c-4.979-.443-9.274-2.617-11.344-5.742L16 145.538V23.663l1.1-1.718c1.361-2.127 3.549-3.809 6.409-4.927l2.186-.855h110.021l2.409.877c4.364 1.589 7.497 5.192 7.497 8.624v1.508l2.742.163c3.597.214 6.801 1.389 9.213 3.377 2.068 1.706 3.116 3.586 3.502 6.287l.253 1.774 2.156.207c4.794.461 9.077 2.671 11.102 5.727l1.172 1.769.116 21.49.117 21.491-1.046.775c-1.272.943-2.711.989-4.178.134l-1.099-.641-.117-21.156-.117-21.156-.927-1.105c-1.147-1.367-3.747-2.488-5.769-2.488h-1.523v87.21l4.109-.09 4.11-.089.211-16.25c.116-8.937.372-16.434.568-16.66 1.087-1.247 4.296-1.033 5.288.353.364.508.459 9.533.372 35.37l-.115 34.687-1.105 1.746c-1.345 2.126-3.468 3.752-6.392 4.895l-2.199.859-54.378.07c-51.341.067-54.499.039-56.556-.49Zm110.091-4.699c.928-.316 2.036-.866 2.464-1.222 1.851-1.543 1.924-2.242 1.944-18.425l.018-15.39h-8.379l-.131 10.39c-.127 10.051-.163 10.442-1.092 11.936-1.316 2.116-2.732 3.422-4.919 4.537-3.821 1.95-1.994 1.887-54.699 1.887H52.463v1.26c0 2.34 2.17 4.686 4.891 5.29.672.149 24.837.28 53.702.291 50.066.019 52.559-.006 54.167-.554Zm-16.71-11.265c2.152-.308 3.695-1.084 5.013-2.519l.948-1.033v-32.117l-4.321.089-4.32.089-.211 10.938-.211 10.937-1.121 1.575c-1.181 1.659-4.069 3.841-6.102 4.611-2.944 1.114-4.943 1.158-53.077 1.158H37.709v1.36c0 2.269 2.554 4.439 5.769 4.9 2.25.323 102.785.334 105.035.012Zm-12.261-12.158c.759-.401 1.755-1.274 2.213-1.941.798-1.159.834-1.888.834-17.005V112.57H87.09l-.907-.855c-1.088-1.026-.884-2.452.472-3.286.825-.508 2.74-.547 26.766-.547h25.878V66.496c0-28.424-.14-41.661-.448-42.265-.665-1.309-2.897-2.876-4.592-3.225-.944-.195-20.731-.306-53.764-.303-49.821.005-52.35.032-53.957.579-.927.316-2.036.866-2.464 1.223-1.973 1.646-1.924.516-1.943 44.205l-.019 41.172h26.51c24.628 0 26.573.039 27.399.547 1.355.834 1.56 2.26.472 3.286l-.907.855H22.083l.12 16.015c.115 15.375.154 16.058.963 17.058.464.573 1.602 1.381 2.529 1.796l1.686.754 53.746-.077 53.746-.078Zm-96.729-8.863c-1.953-.7-2.065-3.233-.176-3.982.573-.228 14.091-.332 43.017-.332 41.619 0 42.192.008 43.024.625 1.255.931 1.124 2.604-.267 3.415-1.108.646-1.24.648-42.892.627-28.55-.015-42.073-.127-42.706-.353Zm.49-12.111c-2.294-.689-2.753-2.774-.875-3.971l1.147-.732 16.522.005c12.416.003 16.782.102 17.569.398 2.18.818 2.194 3.29.021 4.123-1.046.401-3.733.472-17.382.455-8.879-.011-16.53-.136-17.002-.278Zm50.388.081c-2.225-.625-2.913-2.897-1.221-4.032.843-.565 1.767-.595 18.164-.595h17.276l.805.737c1.029.942 1.03 2.27.001 3.212l-.806.738-16.793.059c-9.237.032-17.078-.021-17.426-.119ZM35.18 88.263c-1.132-.265-2.529-1.412-2.529-2.076 0-.634 21.385-42.57 22.589-44.295.662-.95 2.561-1.822 3.967-1.822 1.493 0 3.225.857 3.917 1.939 1.431 2.237 22.218 43.428 22.218 44.026 0 1.675-2.232 2.691-4.449 2.024-1.111-.335-1.51-.899-3.791-5.354l-2.55-4.979H43.546l-2.419 4.702c-1.33 2.586-2.548 4.857-2.707 5.047-.39.468-2.459.972-3.24.788Zm36.673-15.609c0-.33-12.31-24.575-12.607-24.829-.177-.152-11.159 20.701-13.036 24.754-.089.192 4.598.303 12.751.303 7.091 0 12.892-.102 12.892-.228Zm49.473 15.488c-1.286-.462-1.839-1.578-1.839-3.707v-1.856l-2.177 1.222c-3.166 1.776-6.208 2.559-10.68 2.748-7.454.314-13.321-1.652-17.702-5.935-9.383-9.17-2.124-22.369 13.368-24.306 5.095-.637 10.487.338 14.975 2.708l2.005 1.06.211-2.219c.175-1.847.377-2.319 1.206-2.815 1.29-.774 3.209-.762 4.274.028.82.608.843 1.041.843 16.383v15.759l-1.111.648c-1.216.709-2.001.774-3.373.282Zm-9.427-7.472c2.86-1.131 4.927-2.724 6.396-4.933 1.357-2.038 1.391-6.407.068-8.535-1.224-1.968-4.072-4.195-6.658-5.207-1.89-.739-2.589-.831-6.34-.831-3.748 0-4.448.092-6.323.828-4.804 1.887-7.415 4.892-7.7 8.859-.216 3.008.742 5.248 3.128 7.315 3.101 2.686 6.802 3.853 11.6 3.659 2.64-.106 3.712-.319 5.828-1.155Zm42.575-3.131c0-38.069-.059-41.686-.698-42.684-.934-1.458-3.306-2.572-5.98-2.806l-2.174-.191v87.274h8.852Z"/></svg>

<svg
    xmlns="http://www.w3.org/2000/svg"
    viewBox="0 0 192 192"
    id="vector">
    <g id="group">
        <path
            id="path_1"
            d="M 55.132 175.431 C 49.799 174.059 46.14 170.302 46.14 166.201 L 46.14 164.525 L 43.643 164.316 C 40.524 164.054 36.522 162.605 34.722 161.085 C 32.916 159.56 31.531 157.182 31.192 155.025 L 30.915 153.262 L 28.516 153.049 C 23.537 152.606 19.242 150.432 17.172 147.307 L 16 145.538 L 16 23.663 L 17.1 21.945 C 18.461 19.818 20.649 18.136 23.509 17.018 L 25.695 16.163 L 135.716 16.163 L 138.125 17.04 C 142.489 18.629 145.622 22.232 145.622 25.664 L 145.622 27.172 L 148.364 27.335 C 151.961 27.549 155.165 28.724 157.577 30.712 C 159.645 32.418 160.693 34.298 161.079 36.999 L 161.332 38.773 L 163.488 38.98 C 168.282 39.441 172.565 41.651 174.59 44.707 L 175.762 46.476 L 175.878 67.966 L 175.995 89.457 L 174.949 90.232 C 173.677 91.175 172.238 91.221 170.771 90.366 L 169.672 89.725 L 169.555 68.569 L 169.438 47.413 L 168.511 46.308 C 167.364 44.941 164.764 43.82 162.742 43.82 L 161.219 43.82 L 161.219 131.03 L 165.328 130.94 L 169.438 130.851 L 169.649 114.601 C 169.765 105.664 170.021 98.167 170.217 97.941 C 171.304 96.694 174.513 96.908 175.505 98.294 C 175.869 98.802 175.964 107.827 175.877 133.664 L 175.762 168.351 L 174.657 170.097 C 173.312 172.223 171.189 173.849 168.265 174.992 L 166.066 175.851 L 111.688 175.921 C 60.347 175.988 57.189 175.96 55.132 175.431 Z M 165.223 170.732 C 166.151 170.416 167.259 169.866 167.687 169.51 C 169.538 167.967 169.611 167.268 169.631 151.085 L 169.649 135.695 L 161.27 135.695 L 161.139 146.085 C 161.012 156.136 160.976 156.527 160.047 158.021 C 158.731 160.137 157.315 161.443 155.128 162.558 C 151.307 164.508 153.134 164.445 100.429 164.445 L 52.463 164.445 L 52.463 165.705 C 52.463 168.045 54.633 170.391 57.354 170.995 C 58.026 171.144 82.191 171.275 111.056 171.286 C 161.122 171.305 163.615 171.28 165.223 170.732 Z M 148.513 159.467 C 150.665 159.159 152.208 158.383 153.526 156.948 L 154.474 155.915 L 154.474 123.798 L 150.153 123.887 L 145.833 123.976 L 145.622 134.914 L 145.411 145.851 L 144.29 147.426 C 143.109 149.085 140.221 151.267 138.188 152.037 C 135.244 153.151 133.245 153.195 85.111 153.195 L 37.709 153.195 L 37.709 154.555 C 37.709 156.824 40.263 158.994 43.478 159.455 C 45.728 159.778 146.263 159.789 148.513 159.467 Z M 136.252 147.309 C 137.011 146.908 138.007 146.035 138.465 145.368 C 139.263 144.209 139.299 143.48 139.299 128.363 L 139.299 112.57 L 87.09 112.57 L 86.183 111.715 C 85.095 110.689 85.299 109.263 86.655 108.429 C 87.48 107.921 89.395 107.882 113.421 107.882 L 139.299 107.882 L 139.299 66.496 C 139.299 38.072 139.159 24.835 138.851 24.231 C 138.186 22.922 135.954 21.355 134.259 21.006 C 133.315 20.811 113.528 20.7 80.495 20.703 C 30.674 20.708 28.145 20.735 26.538 21.282 C 25.611 21.598 24.502 22.148 24.074 22.505 C 22.101 24.151 22.15 23.021 22.131 66.71 L 22.112 107.882 L 48.622 107.882 C 73.25 107.882 75.195 107.921 76.021 108.429 C 77.376 109.263 77.581 110.689 76.493 111.715 L 75.586 112.57 L 22.083 112.57 L 22.203 128.585 C 22.318 143.96 22.357 144.643 23.166 145.643 C 23.63 146.216 24.768 147.024 25.695 147.439 L 27.381 148.193 L 81.127 148.116 L 134.873 148.038 Z M 39.523 138.446 C 37.57 137.746 37.458 135.213 39.347 134.464 C 39.92 134.236 53.438 134.132 82.364 134.132 C 123.983 134.132 124.556 134.14 125.388 134.757 C 126.643 135.688 126.512 137.361 125.121 138.172 C 124.013 138.818 123.881 138.82 82.229 138.799 C 53.679 138.784 40.156 138.672 39.523 138.446 Z M 40.013 126.335 C 37.719 125.646 37.26 123.561 39.138 122.364 L 40.285 121.632 L 56.807 121.637 C 69.223 121.64 73.589 121.739 74.376 122.035 C 76.556 122.853 76.57 125.325 74.397 126.158 C 73.351 126.559 70.664 126.63 57.015 126.613 C 48.136 126.602 40.485 126.477 40.013 126.335 Z M 90.401 126.416 C 88.176 125.791 87.488 123.519 89.18 122.384 C 90.023 121.819 90.947 121.789 107.344 121.789 L 124.62 121.789 L 125.425 122.526 C 126.454 123.468 126.455 124.796 125.426 125.738 L 124.62 126.476 L 107.827 126.535 C 98.59 126.567 90.749 126.514 90.401 126.416 Z M 35.18 88.263 C 34.048 87.998 32.651 86.851 32.651 86.187 C 32.651 85.553 54.036 43.617 55.24 41.892 C 55.902 40.942 57.801 40.07 59.207 40.07 C 60.7 40.07 62.432 40.927 63.124 42.009 C 64.555 44.246 85.342 85.437 85.342 86.035 C 85.342 87.71 83.11 88.726 80.893 88.059 C 79.782 87.724 79.383 87.16 77.102 82.705 L 74.552 77.726 L 43.546 77.726 L 41.127 82.428 C 39.797 85.014 38.579 87.285 38.42 87.475 C 38.03 87.943 35.961 88.447 35.18 88.263 Z M 71.853 72.654 C 71.853 72.324 59.543 48.079 59.246 47.825 C 59.069 47.673 48.087 68.526 46.21 72.579 C 46.121 72.771 50.808 72.882 58.961 72.882 C 66.052 72.882 71.853 72.78 71.853 72.654 Z M 121.326 88.142 C 120.04 87.68 119.487 86.564 119.487 84.435 L 119.487 82.579 L 117.31 83.801 C 114.144 85.577 111.102 86.36 106.63 86.549 C 99.176 86.863 93.309 84.897 88.928 80.614 C 79.545 71.444 86.804 58.245 102.296 56.308 C 107.391 55.671 112.783 56.646 117.271 59.016 L 119.276 60.076 L 119.487 57.857 C 119.662 56.01 119.864 55.538 120.693 55.042 C 121.983 54.268 123.902 54.28 124.967 55.07 C 125.787 55.678 125.81 56.111 125.81 71.453 L 125.81 87.212 L 124.699 87.86 C 123.483 88.569 122.698 88.634 121.326 88.142 Z M 111.899 80.67 C 114.759 79.539 116.826 77.946 118.295 75.737 C 119.652 73.699 119.686 69.33 118.363 67.202 C 117.139 65.234 114.291 63.007 111.705 61.995 C 109.815 61.256 109.116 61.164 105.365 61.164 C 101.617 61.164 100.917 61.256 99.042 61.992 C 94.238 63.879 91.627 66.884 91.342 70.851 C 91.126 73.859 92.084 76.099 94.47 78.166 C 97.571 80.852 101.272 82.019 106.07 81.825 C 108.71 81.719 109.782 81.506 111.898 80.67 Z M 154.474 77.539 C 154.474 39.47 154.415 35.853 153.776 34.855 C 152.842 33.397 150.47 32.283 147.796 32.049 L 145.622 31.858 L 145.622 119.132 L 154.474 119.132 Z"
            fill="#000000"
            stroke-width="12"/>
    </g>
</svg>
